X: 22689
T: Lally's Fancy
R: reel
M: 4/4
K: Amixolydian
|:gfed Be e2|d2 Ad Adfa|gfed BAGF|GBAF GE E2|
gfed Be e2|d2 Ad Adfa|gfed BAGF|GBAF GEE2:|
GABc d2 Bd|cAeA fAeA|EFGA BcdB|cAec A2A2|
EFGA BcdB|cAeA fAeA|GEEF GABd|cAec A2A2||
K:Emin
GE E2 GABG|ABce dBAF|GE E2 GABd|cABG EA A2|
GABG ABcA|BEGB AF F2|GABc Be e2|dBAF E4||

